X:335
T:5-time Waltz (2)
A:Bavaria
M:5/4
O:Germany
Q:1/4=400
R:Waltz(5-time)
Z:Richard Robinson 
%%TUNEURL: http://www.leeds.ac.uk/music/Info/RRTuneBk/gettune/000006a8.html
%%ID:000006a8
K:A min
E2A2B2 | \
c2B2 A2G2B2 | A4 c2B2A2 | \
G2E2E2 F2A2 | ^G4 E2A2B2 | c2B2 A2G2B2 | \
A4 c2B2A2 | G2E2 E2F2A2 | ^G4 :|
|:\
e2d2e2|\
g2e2 d2c2A2 | e2c2 A2c2A2 | d4 B2c2d2 |\
e4 e2d2e2 | f2e2 d2c2A2 | e2c2 A2c2A2 | \
d4 c2B2^G2 | A4 :|
